src/images/circuits/azerbaijan.svg

<svg width="40" height="26" viewBox="0 0 40 26" fill="none" xmlns="http://www.w3.org/2000/svg">
<path d="M27.074 4.02496L36.3987 1.14137C36.6544 1.06231 36.927 1.19857 37.0172 1.45052L38.8264 6.50367C38.9214 6.76916 38.7782 7.06068 38.51 7.14777L19.0177 13.4774C18.9826 13.4888 18.9489 13.504 18.9172 13.5228L13.1057 16.9667C13.0215 17.0166 12.9538 17.0901 12.9109 17.1781L11.6961 19.6752C11.663 19.7432 11.6149 19.8029 11.5554 19.8496L8.63507 22.1442C8.57308 22.1929 8.52348 22.2556 8.49033 22.3271L7.36623 24.7528C7.24263 25.0195 6.91673 25.1226 6.66226 24.9754L1.43307 21.9512C1.19393 21.8129 1.11226 21.5069 1.25069 21.2679L1.73537 20.4308C1.78617 20.3431 1.80911 20.242 1.80112 20.1409L1.60172 17.6167C1.59499 17.5315 1.61021 17.446 1.64593 17.3684L3.20217 13.9852C3.25943 13.8607 3.36528 13.7652 3.49496 13.721L9.09939 11.8088C9.36202 11.7192 9.64738 11.8606 9.73516 12.1239L9.77897 12.2552C9.79146 12.2927 9.80835 12.3286 9.82928 12.3621L10.0414 12.7014C10.1211 12.829 10.2541 12.9139 10.4034 12.9326L10.6573 12.9643C10.7243 12.9727 10.7889 12.9946 10.8472 13.0286L11.4733 13.3938C11.5841 13.4585 11.6659 13.5633 11.7016 13.6866L12.2344 15.5268C12.3377 15.8838 12.7807 16.0073 13.0538 15.7552L13.3502 15.4816C13.3966 15.4387 13.4508 15.4051 13.5098 15.3824L14.3375 15.064C14.3668 15.0527 14.3949 15.0388 14.4215 15.0222L17.9306 12.8465C18.0259 12.7874 18.0986 12.6979 18.137 12.5925L18.311 12.1142C18.3515 12.003 18.43 11.9098 18.5328 11.8511L20.9285 10.482C20.9502 10.4696 20.9728 10.4589 20.9961 10.4498L27.3866 7.9761C27.6377 7.87891 27.7667 7.60036 27.6785 7.34599L26.7493 4.66647C26.6566 4.39929 26.8038 4.10851 27.074 4.02496Z" stroke="#FF0000"/>
</svg>

<svg width="40" height="26" fill="none" xmlns="http://www.w3.org/2000/svg"><path d="m27.074 4.025 9.325-2.884a.5.5 0 0 1 .618.31l1.81 5.053a.5.5 0 0 1-.317.644l-19.492 6.33a.5.5 0 0 0-.1.045l-5.812 3.444a.5.5 0 0 0-.195.211l-1.215 2.497a.5.5 0 0 1-.14.175l-2.92 2.294a.5.5 0 0 0-.146.183l-1.124 2.426a.5.5 0 0 1-.704.222l-5.229-3.024a.5.5 0 0 1-.182-.683l.484-.837a.5.5 0 0 0 .066-.29l-.2-2.524a.5.5 0 0 1 .045-.249l1.556-3.383a.5.5 0 0 1 .293-.264l5.604-1.912a.5.5 0 0 1 .636.315l.044.131a.5.5 0 0 0 .05.107l.212.34a.5.5 0 0 0 .362.23l.254.032a.5.5 0 0 1 .19.065l.626.365a.5.5 0 0 1 .229.293l.532 1.84a.5.5 0 0 0 .82.228l.296-.273a.499.499 0 0 1 .16-.1l.828-.318a.494.494 0 0 0 .084-.042l3.509-2.175a.5.5 0 0 0 .206-.255l.174-.478a.5.5 0 0 1 .222-.263l2.395-1.369a.51.51 0 0 1 .068-.032l6.39-2.474a.5.5 0 0 0 .293-.63l-.93-2.68a.5.5 0 0 1 .325-.641Z" stroke="red"/></svg>
